assets/svg/icon_2fa_followinstuction.svg

<svg width="36" height="36" viewBox="0 0 36 36" fill="none" xmlns="http://www.w3.org/2000/svg">
<path fill-rule="evenodd" clip-rule="evenodd" d="M6.05025 6.05025C4 8.1005 4 11.4003 4 18C4 24.5997 4 27.8995 6.05025 29.9497C8.1005 32 11.4003 32 18 32C24.5997 32 27.8995 32 29.9497 29.9497C32 27.8995 32 24.5997 32 18C32 11.4003 32 8.1005 29.9497 6.05025C27.8995 4 24.5997 4 18 4C11.4003 4 8.1005 4 6.05025 6.05025ZM15.9603 11.7241C16.3603 11.3042 16.3441 10.6396 15.9241 10.2397C15.5042 9.83973 14.8396 9.85594 14.4397 10.2759L11.2 13.6775L10.3603 12.7959C9.96042 12.3759 9.29579 12.3597 8.87586 12.7597C8.45594 13.1596 8.43973 13.8242 8.83966 14.2441L10.4397 15.9241C10.6378 16.1322 10.9126 16.25 11.2 16.25C11.4874 16.25 11.7622 16.1322 11.9603 15.9241L15.9603 11.7241ZM19.4 12.75C18.8201 12.75 18.35 13.2201 18.35 13.8C18.35 14.3799 18.8201 14.85 19.4 14.85H26.4C26.9799 14.85 27.45 14.3799 27.45 13.8C27.45 13.2201 26.9799 12.75 26.4 12.75H19.4ZM15.9603 21.5241C16.3603 21.1042 16.3441 20.4396 15.9241 20.0397C15.5042 19.6397 14.8396 19.6559 14.4397 20.0759L11.2 23.4775L10.3603 22.5959C9.96042 22.1759 9.29579 22.1597 8.87586 22.5597C8.45594 22.9596 8.43973 23.6242 8.83966 24.0441L10.4397 25.7241C10.6378 25.9322 10.9126 26.05 11.2 26.05C11.4874 26.05 11.7622 25.9322 11.9603 25.7241L15.9603 21.5241ZM19.4 22.55C18.8201 22.55 18.35 23.0201 18.35 23.6C18.35 24.1799 18.8201 24.65 19.4 24.65H26.4C26.9799 24.65 27.45 24.1799 27.45 23.6C27.45 23.0201 26.9799 22.55 26.4 22.55H19.4Z" fill="white"/>
</svg>

<svg xmlns="http://www.w3.org/2000/svg" width="36" height="36" fill="none"><path fill="#fff" fill-rule="evenodd" d="M6.05 6.05C4 8.1 4 11.4 4 18s0 9.9 2.05 11.95S11.4 32 18 32s9.9 0 11.95-2.05S32 24.6 32 18s0-9.9-2.05-11.95S24.6 4 18 4 8.1 4 6.05 6.05m9.91 5.674a1.05 1.05 0 1 0-1.52-1.448l-3.24 3.402-.84-.882a1.05 1.05 0 1 0-1.52 1.448l1.6 1.68a1.05 1.05 0 0 0 1.52 0zm3.44 1.026a1.05 1.05 0 1 0 0 2.1h7a1.05 1.05 0 1 0 0-2.1zm-3.44 8.774a1.05 1.05 0 1 0-1.52-1.448l-3.24 3.401-.84-.881a1.05 1.05 0 1 0-1.52 1.448l1.6 1.68a1.05 1.05 0 0 0 1.52 0zm3.44 1.026a1.05 1.05 0 1 0 0 2.1h7a1.05 1.05 0 1 0 0-2.1z" clip-rule="evenodd"/></svg>
